X: 100
T:No Luck About the House. GS.100
T:Nae Guid Luck Aboot etc,aka. GS.100
M:4/4
L:1/8
Q:150
S:George Spencer m/s, Leeds,1831
R:Schottische
O:England
A:Leeds
N:See my comments in GS.054,  Unfortunately Mr. Spencer was having
N:serious problems  with his pen, but the combination of well-known tune
N:and  very luckily spaced blots means it is legible.Cherri.. P.S.
N:Cherri, I think he was closing the
N:book before the ink was dry,. Chris P.
H:1831
Z:vmp.Cherri Graebe
K:G major
d | g>fdB  c>def | g>edB A2 AB | g>edB c>def | d>cBA G2G :||:!
A | B2 BG c2 cA | B2 BG A2Ac | B2BG c>def | dcBA G2 G :||
